X: 78
T:Saint Anne's Reel
M:4/4
L:1/8
C:Traditional
R:Reel
K:D
de|:"D"~f3g fedB|ABAG FGAd|"G"~B2[B2G2][B2G2]F-G|"D"ABAG FGAd|!
~f3g fedB|ABAG FGAd|"G"BGBd"A"cABc|[1"D"dBAF D2d-e:|[2"D"dBAF D2a-g||!
"D"fafd Adfg|"G"a2g2g2g-f|"A"edcB Aceg|"D"b2a2a2a-g|"D"fafd Adfg|!
"G"a2 g2g2g-f|"A"edcB Aceg|[1"D"f
2d2d2 a-g:|[2"D"f2d2d4|]
